docs/img/svg/footer__portfolio-instagram.svg

<svg width="26" height="26" viewBox="0 0 26 26" fill="none" xmlns="http://www.w3.org/2000/svg">
<mask id="path-1-inside-1" fill="white">
<path fill-rule="evenodd" clip-rule="evenodd" d="M0.5 4C0.5 2.067 2.067 0.5 4 0.5H22C23.933 0.5 25.5 2.067 25.5 4V22C25.5 23.933 23.933 25.5 22 25.5H4C2.067 25.5 0.5 23.933 0.5 22V4ZM19.25 13C19.25 16.4518 16.4518 19.25 13 19.25C9.54822 19.25 6.75 16.4518 6.75 13C6.75 9.54822 9.54822 6.75 13 6.75C16.4518 6.75 19.25 9.54822 19.25 13ZM19.25 6.75C19.9404 6.75 20.5 6.19036 20.5 5.5C20.5 4.80964 19.9404 4.25 19.25 4.25C18.5596 4.25 18 4.80964 18 5.5C18 6.19036 18.5596 6.75 19.25 6.75Z"/>
</mask>
<path fill-rule="evenodd" clip-rule="evenodd" d="M0.5 4C0.5 2.067 2.067 0.5 4 0.5H22C23.933 0.5 25.5 2.067 25.5 4V22C25.5 23.933 23.933 25.5 22 25.5H4C2.067 25.5 0.5 23.933 0.5 22V4ZM19.25 13C19.25 16.4518 16.4518 19.25 13 19.25C9.54822 19.25 6.75 16.4518 6.75 13C6.75 9.54822 9.54822 6.75 13 6.75C16.4518 6.75 19.25 9.54822 19.25 13ZM19.25 6.75C19.9404 6.75 20.5 6.19036 20.5 5.5C20.5 4.80964 19.9404 4.25 19.25 4.25C18.5596 4.25 18 4.80964 18 5.5C18 6.19036 18.5596 6.75 19.25 6.75Z" fill="white"/>
<path d="M4 -2C0.686292 -2 -2 0.686291 -2 4H3C3 3.44772 3.44772 3 4 3V-2ZM22 -2H4V3H22V-2ZM28 4C28 0.686292 25.3137 -2 22 -2V3C22.5523 3 23 3.44772 23 4H28ZM28 22V4H23V22H28ZM22 28C25.3137 28 28 25.3137 28 22H23C23 22.5523 22.5523 23 22 23V28ZM4 28H22V23H4V28ZM-2 22C-2 25.3137 0.686291 28 4 28V23C3.44772 23 3 22.5523 3 22H-2ZM-2 4V22H3V4H-2ZM13 21.75C17.8325 21.75 21.75 17.8325 21.75 13H16.75C16.75 15.0711 15.0711 16.75 13 16.75V21.75ZM4.25 13C4.25 17.8325 8.16751 21.75 13 21.75V16.75C10.9289 16.75 9.25 15.0711 9.25 13H4.25ZM13 4.25C8.16751 4.25 4.25 8.16751 4.25 13H9.25C9.25 10.9289 10.9289 9.25 13 9.25V4.25ZM21.75 13C21.75 8.16751 17.8325 4.25 13 4.25V9.25C15.0711 9.25 16.75 10.9289 16.75 13H21.75ZM18 5.5C18 4.80964 18.5596 4.25 19.25 4.25V9.25C21.3211 9.25 23 7.57107 23 5.5H18ZM19.25 6.75C18.5596 6.75 18 6.19036 18 5.5H23C23 3.42893 21.3211 1.75 19.25 1.75V6.75ZM20.5 5.5C20.5 6.19036 19.9404 6.75 19.25 6.75V1.75C17.1789 1.75 15.5 3.42893 15.5 5.5H20.5ZM19.25 4.25C19.9404 4.25 20.5 4.80964 20.5 5.5H15.5C15.5 7.57107 17.1789 9.25 19.25 9.25V4.25Z" fill="white" mask="url(#path-1-inside-1)"/>
</svg>

<svg width="26" height="26" fill="none" xmlns="http://www.w3.org/2000/svg"><mask id="a" fill="#fff"><path fill-rule="evenodd" clip-rule="evenodd" d="M.5 4A3.5 3.5 0 014 .5h18A3.5 3.5 0 0125.5 4v18a3.5 3.5 0 01-3.5 3.5H4A3.5 3.5 0 01.5 22V4zm18.75 9a6.25 6.25 0 11-12.5 0 6.25 6.25 0 0112.5 0zm0-6.25a1.25 1.25 0 100-2.5 1.25 1.25 0 000 2.5z"/></mask><path fill-rule="evenodd" clip-rule="evenodd" d="M.5 4A3.5 3.5 0 014 .5h18A3.5 3.5 0 0125.5 4v18a3.5 3.5 0 01-3.5 3.5H4A3.5 3.5 0 01.5 22V4zm18.75 9a6.25 6.25 0 11-12.5 0 6.25 6.25 0 0112.5 0zm0-6.25a1.25 1.25 0 100-2.5 1.25 1.25 0 000 2.5z" fill="#fff"/><path d="M4-2a6 6 0 00-6 6h5a1 1 0 011-1v-5zm18 0H4v5h18v-5zm6 6a6 6 0 00-6-6v5a1 1 0 011 1h5zm0 18V4h-5v18h5zm-6 6a6 6 0 006-6h-5a1 1 0 01-1 1v5zM4 28h18v-5H4v5zm-6-6a6 6 0 006 6v-5a1 1 0 01-1-1h-5zm0-18v18h5V4h-5zm15 17.75A8.75 8.75 0 0021.75 13h-5A3.75 3.75 0 0113 16.75v5zM4.25 13A8.75 8.75 0 0013 21.75v-5A3.75 3.75 0 019.25 13h-5zM13 4.25A8.75 8.75 0 004.25 13h5A3.75 3.75 0 0113 9.25v-5zM21.75 13A8.75 8.75 0 0013 4.25v5A3.75 3.75 0 0116.75 13h5zM18 5.5c0-.69.56-1.25 1.25-1.25v5A3.75 3.75 0 0023 5.5h-5zm1.25 1.25c-.69 0-1.25-.56-1.25-1.25h5a3.75 3.75 0 00-3.75-3.75v5zM20.5 5.5c0 .69-.56 1.25-1.25 1.25v-5A3.75 3.75 0 0015.5 5.5h5zm-1.25-1.25c.69 0 1.25.56 1.25 1.25h-5a3.75 3.75 0 003.75 3.75v-5z" fill="#fff" mask="url(#a)"/></svg>
